svg/700/outlined/snowing_heavy-fill.svg

<svg xmlns="http://www.w3.org/2000/svg" width="48" height="48" viewBox="0 -960 960 960"><path d="M199.825-193Q180-193 166.5-206.675q-13.5-13.676-13.5-33.5Q153-260 166.675-273.5q13.676-13.5 33.5-13.5Q220-287 233.5-273.325q13.5 13.676 13.5 33.5Q247-220 233.325-206.5q-13.676 13.5-33.5 13.5Zm180 0Q360-193 346.5-206.675q-13.5-13.676-13.5-33.5Q333-260 346.675-273.5q13.676-13.5 33.5-13.5Q400-287 413.5-273.325q13.5 13.676 13.5 33.5Q427-220 413.325-206.5q-13.676 13.5-33.5 13.5Zm180 0Q540-193 526.5-206.675q-13.5-13.676-13.5-33.5Q513-260 526.675-273.5q13.676-13.5 33.5-13.5Q580-287 593.5-273.325q13.5 13.676 13.5 33.5Q607-220 593.325-206.5q-13.676 13.5-33.5 13.5Zm180 0Q720-193 706.5-206.675q-13.5-13.676-13.5-33.5Q693-260 706.675-273.5q13.676-13.5 33.5-13.5Q760-287 773.5-273.325q13.5 13.676 13.5 33.5Q787-220 773.325-206.5q-13.676 13.5-33.5 13.5Zm-620-160Q100-353 86.5-366.675 73-380.351 73-400.175 73-420 86.675-433.5q13.676-13.5 33.5-13.5Q140-447 153.5-433.325q13.5 13.676 13.5 33.5Q167-380 153.325-366.5q-13.676 13.5-33.5 13.5Zm180 0Q280-353 266.5-366.675q-13.5-13.676-13.5-33.5Q253-420 266.675-433.5q13.676-13.5 33.5-13.5Q320-447 333.5-433.325q13.5 13.676 13.5 33.5Q347-380 333.325-366.5q-13.676 13.5-33.5 13.5Zm180 0Q460-353 446.5-366.675q-13.5-13.676-13.5-33.5Q433-420 446.675-433.5q13.676-13.5 33.5-13.5Q500-447 513.5-433.325q13.5 13.676 13.5 33.5Q527-380 513.325-366.5q-13.676 13.5-33.5 13.5Zm180 0Q640-353 626.5-366.675q-13.5-13.676-13.5-33.5Q613-420 626.675-433.5q13.676-13.5 33.5-13.5Q680-447 693.5-433.325q13.5 13.676 13.5 33.5Q707-380 693.325-366.5q-13.676 13.5-33.5 13.5Zm180 0Q820-353 806.5-366.675q-13.5-13.676-13.5-33.5Q793-420 806.675-433.5q13.676-13.5 33.5-13.5Q860-447 873.5-433.325q13.5 13.676 13.5 33.5Q887-380 873.325-366.5q-13.676 13.5-33.5 13.5Zm-640-160Q180-513 166.5-526.675q-13.5-13.676-13.5-33.5Q153-580 166.675-593.5q13.676-13.5 33.5-13.5Q220-607 233.5-593.325q13.5 13.676 13.5 33.5Q247-540 233.325-526.5q-13.676 13.5-33.5 13.5Zm180 0Q360-513 346.5-526.675q-13.5-13.676-13.5-33.5Q333-580 346.675-593.5q13.676-13.5 33.5-13.5Q400-607 413.5-593.325q13.5 13.676 13.5 33.5Q427-540 413.325-526.5q-13.676 13.5-33.5 13.5Zm180 0Q540-513 526.5-526.675q-13.5-13.676-13.5-33.5Q513-580 526.675-593.5q13.676-13.5 33.5-13.5Q580-607 593.5-593.325q13.5 13.676 13.5 33.5Q607-540 593.325-526.5q-13.676 13.5-33.5 13.5Zm180 0Q720-513 706.5-526.675q-13.5-13.676-13.5-33.5Q693-580 706.675-593.5q13.676-13.5 33.5-13.5Q760-607 773.5-593.325q13.5 13.676 13.5 33.5Q787-540 773.325-526.5q-13.676 13.5-33.5 13.5Zm-620-160Q100-673 86.5-686.675 73-700.351 73-720.175 73-740 86.675-753.5q13.676-13.5 33.5-13.5Q140-767 153.5-753.325q13.5 13.676 13.5 33.5Q167-700 153.325-686.5q-13.676 13.5-33.5 13.5Zm180 0Q280-673 266.5-686.675q-13.5-13.676-13.5-33.5Q253-740 266.675-753.5q13.676-13.5 33.5-13.5Q320-767 333.5-753.325q13.5 13.676 13.5 33.5Q347-700 333.325-686.5q-13.676 13.5-33.5 13.5Zm180 0Q460-673 446.5-686.675q-13.5-13.676-13.5-33.5Q433-740 446.675-753.5q13.676-13.5 33.5-13.5Q500-767 513.5-753.325q13.5 13.676 13.5 33.5Q527-700 513.325-686.5q-13.676 13.5-33.5 13.5Zm180 0Q640-673 626.5-686.675q-13.5-13.676-13.5-33.5Q613-740 626.675-753.5q13.676-13.5 33.5-13.5Q680-767 693.5-753.325q13.5 13.676 13.5 33.5Q707-700 693.325-686.5q-13.676 13.5-33.5 13.5Zm180 0Q820-673 806.5-686.675q-13.5-13.676-13.5-33.5Q793-740 806.675-753.5q13.676-13.5 33.5-13.5Q860-767 873.5-753.325q13.5 13.676 13.5 33.5Q887-700 873.325-686.5q-13.676 13.5-33.5 13.5Z"/></svg>

<svg xmlns="http://www.w3.org/2000/svg" width="48" height="48" viewBox="0 -960 960 960"><path d="M199.82-193q-19.82 0-33.32-13.68-13.5-13.67-13.5-33.5 0-19.82 13.68-33.32 13.67-13.5 33.5-13.5 19.82 0 33.32 13.68 13.5 13.67 13.5 33.5 0 19.82-13.68 33.32-13.67 13.5-33.5 13.5Zm180 0q-19.82 0-33.32-13.68-13.5-13.67-13.5-33.5 0-19.82 13.68-33.32 13.67-13.5 33.5-13.5 19.82 0 33.32 13.68 13.5 13.67 13.5 33.5 0 19.82-13.68 33.32-13.67 13.5-33.5 13.5Zm180 0q-19.82 0-33.32-13.68-13.5-13.67-13.5-33.5 0-19.82 13.68-33.32 13.67-13.5 33.5-13.5 19.82 0 33.32 13.68 13.5 13.67 13.5 33.5 0 19.82-13.68 33.32-13.67 13.5-33.5 13.5Zm180 0q-19.82 0-33.32-13.68-13.5-13.67-13.5-33.5 0-19.82 13.68-33.32 13.67-13.5 33.5-13.5 19.82 0 33.32 13.68 13.5 13.67 13.5 33.5 0 19.82-13.68 33.32-13.67 13.5-33.5 13.5Zm-620-160Q100-353 86.5-366.68 73-380.35 73-400.18 73-420 86.68-433.5q13.67-13.5 33.5-13.5 19.82 0 33.32 13.68 13.5 13.67 13.5 33.5 0 19.82-13.68 33.32-13.67 13.5-33.5 13.5Zm180 0q-19.82 0-33.32-13.68-13.5-13.67-13.5-33.5 0-19.82 13.68-33.32 13.67-13.5 33.5-13.5 19.82 0 33.32 13.68 13.5 13.67 13.5 33.5 0 19.82-13.68 33.32-13.67 13.5-33.5 13.5Zm180 0q-19.82 0-33.32-13.68-13.5-13.67-13.5-33.5 0-19.82 13.68-33.32 13.67-13.5 33.5-13.5 19.82 0 33.32 13.68 13.5 13.67 13.5 33.5 0 19.82-13.68 33.32-13.67 13.5-33.5 13.5Zm180 0q-19.82 0-33.32-13.68-13.5-13.67-13.5-33.5 0-19.82 13.68-33.32 13.67-13.5 33.5-13.5 19.82 0 33.32 13.68 13.5 13.67 13.5 33.5 0 19.82-13.68 33.32-13.67 13.5-33.5 13.5Zm180 0q-19.82 0-33.32-13.68-13.5-13.67-13.5-33.5 0-19.82 13.68-33.32 13.67-13.5 33.5-13.5 19.82 0 33.32 13.68 13.5 13.67 13.5 33.5 0 19.82-13.68 33.32-13.67 13.5-33.5 13.5Zm-640-160q-19.82 0-33.32-13.68-13.5-13.67-13.5-33.5 0-19.82 13.68-33.32 13.67-13.5 33.5-13.5 19.82 0 33.32 13.68 13.5 13.67 13.5 33.5 0 19.82-13.68 33.32-13.67 13.5-33.5 13.5Zm180 0q-19.82 0-33.32-13.68-13.5-13.67-13.5-33.5 0-19.82 13.68-33.32 13.67-13.5 33.5-13.5 19.82 0 33.32 13.68 13.5 13.67 13.5 33.5 0 19.82-13.68 33.32-13.67 13.5-33.5 13.5Zm180 0q-19.82 0-33.32-13.68-13.5-13.67-13.5-33.5 0-19.82 13.68-33.32 13.67-13.5 33.5-13.5 19.82 0 33.32 13.68 13.5 13.67 13.5 33.5 0 19.82-13.68 33.32-13.67 13.5-33.5 13.5Zm180 0q-19.82 0-33.32-13.68-13.5-13.67-13.5-33.5 0-19.82 13.68-33.32 13.67-13.5 33.5-13.5 19.82 0 33.32 13.68 13.5 13.67 13.5 33.5 0 19.82-13.68 33.32-13.67 13.5-33.5 13.5Zm-620-160Q100-673 86.5-686.68 73-700.35 73-720.18 73-740 86.68-753.5q13.67-13.5 33.5-13.5 19.82 0 33.32 13.68 13.5 13.67 13.5 33.5 0 19.82-13.68 33.32-13.67 13.5-33.5 13.5Zm180 0q-19.82 0-33.32-13.68-13.5-13.67-13.5-33.5 0-19.82 13.68-33.32 13.67-13.5 33.5-13.5 19.82 0 33.32 13.68 13.5 13.67 13.5 33.5 0 19.82-13.68 33.32-13.67 13.5-33.5 13.5Zm180 0q-19.82 0-33.32-13.68-13.5-13.67-13.5-33.5 0-19.82 13.68-33.32 13.67-13.5 33.5-13.5 19.82 0 33.32 13.68 13.5 13.67 13.5 33.5 0 19.82-13.68 33.32-13.67 13.5-33.5 13.5Zm180 0q-19.82 0-33.32-13.68-13.5-13.67-13.5-33.5 0-19.82 13.68-33.32 13.67-13.5 33.5-13.5 19.82 0 33.32 13.68 13.5 13.67 13.5 33.5 0 19.82-13.68 33.32-13.67 13.5-33.5 13.5Zm180 0q-19.82 0-33.32-13.68-13.5-13.67-13.5-33.5 0-19.82 13.68-33.32 13.67-13.5 33.5-13.5 19.82 0 33.32 13.68 13.5 13.67 13.5 33.5 0 19.82-13.68 33.32-13.67 13.5-33.5 13.5Z"/></svg>
